assets/images/MCCGroupIcons/MCC-Goods.svg

<svg xmlns="http://www.w3.org/2000/svg" viewBox="0 0 40 40"><style type="text/css">.st0{fill-rule:evenodd;clip-rule:evenodd}</style><path fill-rule="evenodd" d="M4 5C3.44772 5 3 5.44772 3 6V10C3 10.5523 3.44772 11 4 11H36C36.5523 11 37 10.5523 37 10V6C37 5.44772 36.5523 5 36 5H4ZM4 14H36V31C36 33.2091 34.2091 35 32 35H8C5.79086 35 4 33.2091 4 31V14ZM14 21C14 19.8954 14.8954 19 16 19H24C25.1046 19 26 19.8954 26 21C26 22.1046 25.1046 23 24 23H16C14.8954 23 14 22.1046 14 21Z" class="st0" clip-rule="evenodd"/></svg>

<svg xmlns="http://www.w3.org/2000/svg" viewBox="0 0 40 40"><path d="M4 5a1 1 0 0 0-1 1v4a1 1 0 0 0 1 1h32a1 1 0 0 0 1-1V6a1 1 0 0 0-1-1zm0 9h32v17a4 4 0 0 1-4 4H8a4 4 0 0 1-4-4zm10 7a2 2 0 0 1 2-2h8a2 2 0 1 1 0 4h-8a2 2 0 0 1-2-2" style="fill-rule:evenodd;clip-rule:evenodd"/></svg>
